X:19067
T:Shepherd's Wife, The
R:Waltz
C:Trad.
O:Scotland
Z:Paul Hardy's Session Tunebook 2015 (see www.paulhardy.net). Creative Commons cc by-nc-sa licenced.
M:3/4
L:1/4
Q:1/4=120
K:G
D|"G"G2A|B2c|d2g|g>fd|"C"e>fg|"G"dcB|"Am"A>BG|"D7"FED|
"G"G2A|B2c|d2g|g>fd|"C"e>fg|"D7"agf|"G"g3-|g2||
g/a/|"G"b2b|"D"a>gf|"Em"g2g|"Bm"f>ed|"C"e>fg|"G"dcB|"A7"ABG|"D7"FED|
"G"b2b|"D"a>gf|"Em"g>ag|"Bm"f>ed|"C"e>fg|"D7"agf|"G"g3-|g2|]

